app/src/main/assets/symbols/shopping/photo.svg

﻿<?xml version="1.0" encoding="UTF-8" standalone="no"?>
<svg
   xmlns:dc="http://purl.org/dc/elements/1.1/"
   xmlns:cc="http://creativecommons.org/ns#"
   xmlns:rdf="http://www.w3.org/1999/02/22-rdf-syntax-ns#"
   xmlns:svg="http://www.w3.org/2000/svg"
   xmlns="http://www.w3.org/2000/svg"
   id="svg2"
   viewBox="0 0 14 14"
   height="14"
   width="14"
   version="1.1">
  <defs
     id="defs3053" />
  <metadata
     id="metadata8">
    <rdf:RDF>
      <cc:Work
         rdf:about="">
        <dc:format>image/svg+xml</dc:format>
        <dc:type
           rdf:resource="http://purl.org/dc/dcmitype/StillImage" />
        <dc:title></dc:title>
      </cc:Work>
    </rdf:RDF>
  </metadata>
  <path
     d="M 1.8994152,3.9828765 C 0,4 0,4.1964912 8.78837e-4,5.9898537 L 0.015625,12.03284 C 0,14 0,14 1.9308491,14.034854 L 12.052666,13.998501 C 14,14 14,14 14.050419,11.981131 l -0.0013,-5.9842195 C 14,4 14,4 12.052028,3.9919077 Z M 8,5.015625 c 2.209139,1e-7 4,1.790861 4,4 0,2.209139 -1.790861,4 -4,4 -2.209139,0 -4,-1.790861 -4,-4 0,-2.209139 1.790861,-4 4,-4 z m -6.0163743,-3.0343384 1.0327485,-1e-7 C 4,2 4,3 4.0315789,3.4888892 L 1.0502924,3.5216379 C 1,3 1,2 1.9836257,1.9812866 Z m 8.5228073,7.0567248 c 0,1.3807116 -1.1192882,2.5000006 -2.5000002,2.5000006 -1.3807121,0 -2.5000003,-1.119288 -2.5,-2.5000006 0,-1.3807119 1.1192881,-2.5 2.5,-2.5 1.3807118,10e-8 2.5000002,1.1192882 2.5000002,2.5 z M 9.0011696,0.98245613 8.9840466,3.5867713 14.015626,3.5708513 14.032746,0.86783625 C 14,0 14,0 13.017551,0.00195099 L 10.056599,0.01423822 C 9,0 9,0 9.0011696,0.98245613 Z m 1.1029014,0.0483393 2.913507,-0.017123 0.03349,1.9859078 -2.915006,0.01592 z"
     style="fill:#ac39ac;fill-opacity:1;stroke:none"
     id="photo" />
</svg>

<?xml version="1.0" encoding="UTF-8"?>
<svg version="1.1" viewBox="0 0 14 14" xmlns="http://www.w3.org/2000/svg" xmlns:cc="http://creativecommons.org/ns#" xmlns:dc="http://purl.org/dc/elements/1.1/" xmlns:rdf="http://www.w3.org/1999/02/22-rdf-syntax-ns#">
<metadata>
<rdf:RDF>
<cc:Work rdf:about="">
<dc:format>image/svg+xml</dc:format>
<dc:type rdf:resource="http://purl.org/dc/dcmitype/StillImage"/>
<dc:title/>
</cc:Work>
</rdf:RDF>
</metadata>
<path d="m1.8994 3.9829c-1.8994 0.017124-1.8994 0.21361-1.8985 2.007l0.014746 6.043c-0.015625 1.9672-0.015625 1.9672 1.9152 2.002l10.122-0.036353c1.9473 0.001499 1.9473 0.001499 1.9978-2.0174l-0.0013-5.9842c-0.049119-1.9969-0.049119-1.9969-1.9971-2.005zm6.1006 1.0327c2.2091 1e-7 4 1.7909 4 4s-1.7909 4-4 4-4-1.7909-4-4 1.7909-4 4-4zm-6.0164-3.0343 1.0327-1e-7c0.98363 0.018714 0.98363 1.0187 1.0152 1.5076l-2.9813 0.032749c-0.050292-0.52164-0.050292-1.5216 0.93333-1.5404zm8.5228 7.0567c0 1.3807-1.1193 2.5-2.5 2.5-1.3807 0-2.5-1.1193-2.5-2.5 0-1.3807 1.1193-2.5 2.5-2.5 1.3807 1e-7 2.5 1.1193 2.5 2.5zm-1.5053-8.0556-0.017123 2.6043 5.0316-0.01592 0.01712-2.703c-0.032746-0.86784-0.032746-0.86784-1.0152-0.86589l-2.961 0.012287c-1.0566-0.014238-1.0566-0.014238-1.0554 0.96822zm1.1029 0.048339 2.9135-0.017123 0.03349 1.9859-2.915 0.01592z" fill="#ac39ac"/>
</svg>
